svgs/regular/engine.svg

<svg xmlns="http://www.w3.org/2000/svg" viewBox="0 0 640 512"><!--! Font Awesome Pro 6.3.0 by @fontawesome - https://fontawesome.com License - https://fontawesome.com/license (Commercial License) Copyright 2023 Fonticons, Inc. --><path d="M424 88c0 13.3-10.7 24-24 24l-72 0v32l68.6 0c12.6 0 25 3.7 35.5 10.7L483.5 189c17.8 11.9 28.5 31.9 28.5 53.3V384c0 35.3-28.7 64-64 64H254.8c-19.4 0-37.8-8.8-50-24l-32-40H144c-35.3 0-64-28.7-64-64V280H48v72c0 13.3-10.7 24-24 24s-24-10.7-24-24V160c0-13.3 10.7-24 24-24s24 10.7 24 24v72H80V208c0-35.3 28.7-64 64-64h16 32l88 0V112l-72 0c-13.3 0-24-10.7-24-24s10.7-24 24-24H400c13.3 0 24 10.7 24 24zM288 224a32 32 0 1 1 0 64 32 32 0 1 1 0-64zM160 256a32 32 0 1 1 64 0 32 32 0 1 1 -64 0zm224-32a32 32 0 1 1 0 64 32 32 0 1 1 0-64zM172.8 336c14.6 0 28.4 6.6 37.5 18l32 40c3 3.8 7.6 6 12.5 6H448c8.8 0 16-7.2 16-16V242.3c0-5.3-2.7-10.3-7.1-13.3l-51.4-34.3c-2.6-1.8-5.7-2.7-8.9-2.7H192 160 144c-8.8 0-16 7.2-16 16V320c0 8.8 7.2 16 16 16h28.8zM576 192h32c17.7 0 32 14.3 32 32V416c0 17.7-14.3 32-32 32H576c-17.7 0-32-14.3-32-32V224c0-17.7 14.3-32 32-32z"/></svg>

<svg xmlns="http://www.w3.org/2000/svg" viewBox="0 0 640 512"><!--! Font Awesome Pro 6.2.0 by @fontawesome - https://fontawesome.com License - https://fontawesome.com/license (Commercial License) Copyright 2022 Fonticons, Inc. --><path d="M256 256C256 238.3 270.3 224 288 224C305.7 224 320 238.3 320 256C320 273.7 305.7 288 288 288C270.3 288 256 273.7 256 256zM224 256C224 273.7 209.7 288 192 288C174.3 288 160 273.7 160 256C160 238.3 174.3 224 192 224C209.7 224 224 238.3 224 256zM352 256C352 238.3 366.3 224 384 224C401.7 224 416 238.3 416 256C416 273.7 401.7 288 384 288C366.3 288 352 273.7 352 256zM424 88C424 101.3 413.3 112 400 112H328V144H396.6C409.3 144 421.6 147.7 432.1 154.7L483.5 189C501.3 200.9 512 220.9 512 242.3V384C512 419.3 483.3 448 448 448H254.8C235.3 448 216.9 439.2 204.8 423.1L172.8 384H144C108.7 384 80 355.3 80 320V280H48V352C48 365.3 37.25 376 24 376C10.75 376 0 365.3 0 352V160C0 146.7 10.75 136 24 136C37.25 136 48 146.7 48 160V232H80V208C80 172.7 108.7 144 144 144H280V112H208C194.7 112 184 101.3 184 88C184 74.75 194.7 64 208 64H400C413.3 64 424 74.75 424 88zM195.9 336L242.3 393.1C245.3 397.8 249.9 400 254.8 400H448C456.8 400 464 392.8 464 384V242.3C464 236.9 461.3 231.9 456.9 228.9L405.5 194.7C402.9 192.9 399.8 192 396.6 192H144C135.2 192 128 199.2 128 208V320C128 328.8 135.2 336 144 336H195.9zM608 192C625.7 192 640 206.3 640 224V416C640 433.7 625.7 448 608 448H576C558.3 448 544 433.7 544 416V224C544 206.3 558.3 192 576 192H608z"/></svg>
